src/app/components/golos-ui/Icon/assets/comment-reply.svg

<?xml version="1.0" encoding="UTF-8"?>
<svg viewBox="0 0 20 19" version="1.1" xmlns="http://www.w3.org/2000/svg" xmlns:xlink="http://www.w3.org/1999/xlink">
    <g stroke="none" stroke-width="1" fill="none" fill-rule="evenodd">
        <g transform="translate(-377.000000, -409.000000)" fill="currentColor">
            <g transform="translate(357.000000, 337.000000)">
                <g transform="translate(20.000000, 65.000000)">
                    <g transform="translate(0.000000, 7.000000)">
                        <path d="M9.65517241,6.78571429 L4.13793103,6.78571429 C3.72413793,6.78571429 3.44827586,6.51428571 3.44827586,6.10714286 C3.44827586,5.7 3.72413793,5.42857143 4.13793103,5.42857143 L9.65517241,5.42857143 C10.0689655,5.42857143 10.3448276,5.7 10.3448276,6.10714286 C10.3448276,6.51428571 10.0689655,6.78571429 9.65517241,6.78571429 Z M11.0344828,9.5 L4.13793103,9.5 C3.72413793,9.5 3.44827586,9.22857143 3.44827586,8.82142857 C3.44827586,8.41428571 3.72413793,8.14285714 4.13793103,8.14285714 L11.0344828,8.14285714 C11.4482759,8.14285714 11.7241379,8.41428571 11.7241379,8.82142857 C11.7241379,9.22857143 11.4482759,9.5 11.0344828,9.5 Z M12.4137931,12.2142857 L4.13793103,12.2142857 C3.72413793,12.2142857 3.44827586,11.9428571 3.44827586,11.5357143 C3.44827586,11.1285714 3.72413793,10.8571429 4.13793103,10.8571429 L12.4137931,10.8571429 C12.8275862,10.8571429 13.1034483,11.1285714 13.1034483,11.5357143 C13.1034483,11.9428571 12.8275862,12.2142857 12.4137931,12.2142857 Z" id="Shape" fill-rule="nonzero"></path>
                        <path d="M11.9011788,18.6165478 C11.7541012,18.6165478 11.6084324,18.5702981 11.4904769,18.4751132 L7.19087307,15.0101859 L1.54885791,15.0101859 C0.69958425,15.0101859 0,14.3103887 0,13.4573498 L0,4.25051912 C0,3.40128805 0.69958425,2.72361813 1.54885791,2.72361813 C6.94572274,2.72361813 10.4837255,2.72361813 12.162866,2.72361813 C12.4594694,2.72361813 12.7419379,2.72361813 13.0102714,2.72361813 C13.3407943,2.72361813 11.7446136,4.12837598 13.3903724,5.91213847 C15.0361313,7.69590096 16.5517241,6.66861879 16.5517241,7.15357242 C16.5517241,7.36569163 16.5517241,7.59387062 16.5517241,7.83810939 C16.5517241,8.75059356 16.5517241,10.6236833 16.5517241,13.4573786 C16.5517241,14.3104175 15.8563072,15.0101859 14.9979751,15.0101859 L12.5409636,15.0101859 L12.5409636,17.9828448 C12.5409636,18.2280102 12.3999511,18.4511539 12.1738518,18.5558726 C12.0858792,18.5965881 11.9948447,18.6165478 11.9011788,18.6165478 Z M1.54885791,3.98968133 C1.41236488,3.98968133 1.3010516,4.10017411 1.3010516,4.25051912 L1.3010516,13.4573498 C1.3010516,13.6089417 1.41467351,13.7441132 1.54885791,13.7441132 L7.4225483,13.7441132 C7.57232575,13.7441132 7.71494253,13.7915905 7.83061873,13.8848572 L11.2496943,16.6409616 L11.2496943,14.3706897 C11.2496943,14.0207 11.5441037,13.7441227 11.9010614,13.7441227 L14.9979751,13.7441227 C15.1361311,13.7441227 15.2604549,13.6037144 15.2604549,13.4573786 C15.2604549,10.6057548 15.2604549,8.71598135 15.2604549,7.78805838 C15.2604549,7.51122228 15.2604549,7.25408189 15.2604549,7.01663721 C15.2604549,6.58309495 13.7480671,7.10581541 13.1517747,6.02336294 C12.5554824,4.94091048 13.0065431,3.98968133 12.6866909,3.98968133 C12.4419622,3.98968133 12.224627,3.98968133 12.0346854,3.98968133 C9.7045015,3.98968133 6.20922568,3.98968133 1.54885791,3.98968133 Z" id="Shape" fill-rule="nonzero"></path>
                        <path d="M15.7586207,7.93928571 C13.5304374,7.93928571 11.7241379,6.16201607 11.7241379,3.96964286 C11.7241379,1.77726964 13.5304374,0 15.7586207,0 C17.986804,0 19.7931034,1.77726964 19.7931034,3.96964286 C19.7931034,6.16201607 17.986804,7.93928571 15.7586207,7.93928571 Z M15.7586207,6.78571429 C17.3392977,6.78571429 18.6206897,5.52491616 18.6206897,3.96964286 C18.6206897,2.41436955 17.3392977,1.15357143 15.7586207,1.15357143 C14.1779436,1.15357143 12.8965517,2.41436955 12.8965517,3.96964286 C12.8965517,5.52491616 14.1779436,6.78571429 15.7586207,6.78571429 Z" id="Oval-2" fill-rule="nonzero"></path>
                        <path d="M16.8471981,4.49150362 L16.3068674,4.49150362 L16.3068674,2.81878448 C16.3068674,2.57368908 16.1081783,2.375 15.8630829,2.375 L15.8630829,2.375 C15.6179875,2.375 15.4192984,2.57368908 15.4192984,2.81878448 L15.4192984,4.49150362 L14.8768967,4.49150362 C14.8569726,4.49150362 14.8390271,4.50565102 14.8313348,4.52721726 C14.8237396,4.54889762 14.8278816,4.57382815 14.8419856,4.59041045 L15.8257079,5.75081286 C15.8349765,5.76171011 15.8474996,5.76785714 15.860619,5.76785714 C15.8737337,5.76785714 15.8862568,5.76171011 15.89553,5.750927 L16.8821091,4.59052458 C16.8962132,4.57394228 16.9004522,4.5490172 16.89276,4.52733139 C16.8850677,4.50565102 16.8671222,4.49150362 16.8471981,4.49150362 Z" transform="translate(15.862069, 4.071429) rotate(-90.000000) translate(-15.862069, -4.071429) "></path>
                    </g>
                </g>
            </g>
        </g>
    </g>
</svg>

<svg viewBox="0 0 20 19" xmlns="http://www.w3.org/2000/svg"><g fill="currentColor" fill-rule="evenodd"><path d="M9.655 6.786H4.138c-.414 0-.69-.272-.69-.679 0-.407.276-.678.69-.678h5.517c.414 0 .69.271.69.678 0 .407-.276.679-.69.679zm1.38 2.714H4.137c-.414 0-.69-.271-.69-.679 0-.407.276-.678.69-.678h6.896c.414 0 .69.271.69.678 0 .408-.276.679-.69.679zm1.379 2.714H4.138c-.414 0-.69-.271-.69-.678 0-.407.276-.679.69-.679h8.276c.414 0 .69.272.69.679 0 .407-.276.678-.69.678z" fill-rule="nonzero"/><path d="M11.901 18.617a.65.65 0 0 1-.41-.142l-4.3-3.465H1.549c-.85 0-1.549-.7-1.549-1.553V4.251c0-.85.7-1.527 1.549-1.527H13.01c.33 0-1.265 1.404.38 3.188 1.646 1.784 3.162.757 3.162 1.242v6.304c0 .852-.696 1.552-1.554 1.552h-2.457v2.973a.63.63 0 0 1-.367.573.642.642 0 0 1-.273.06zM1.55 3.99a.25.25 0 0 0-.248.26v9.207c0 .152.114.287.248.287h5.874a.65.65 0 0 1 .408.14l3.419 2.757v-2.27c0-.35.294-.627.651-.627h3.097c.138 0 .262-.14.262-.287v-6.44c0-.434-1.512.089-2.108-.994-.597-1.082-.145-2.033-.465-2.033H1.549z" fill-rule="nonzero"/><path d="M15.759 7.94c-2.229 0-4.035-1.778-4.035-3.97C11.724 1.777 13.53 0 15.76 0c2.228 0 4.034 1.777 4.034 3.97 0 2.192-1.806 3.97-4.034 3.97zm0-1.154c1.58 0 2.862-1.261 2.862-2.816 0-1.556-1.282-2.816-2.862-2.816-1.581 0-2.862 1.26-2.862 2.816 0 1.555 1.28 2.816 2.862 2.816z" fill-rule="nonzero"/><path d="M16.282 3.086v.54H14.61a.444.444 0 1 0 0 .888h1.673v.543c0 .02.014.037.036.045a.066.066 0 0 0 .063-.01l1.16-.984a.046.046 0 0 0 .017-.035.046.046 0 0 0-.016-.035l-1.16-.987a.065.065 0 0 0-.064-.01c-.022.007-.036.025-.036.045z"/></g></svg>
